X: 152
T: A Day At The Carnival
R: jig
M: 6/8
K: Gmajor
d2 G GAB|d2 B GAB|c2 A A2G|ABG ABc|d2G GAB|d2 B GAB|c2 A e2d|G3-G2e:|
|:d2 g gfg|b2 g gfg|a2 f fef|fga gfe|d2 g gfg|b2 g gfg|agf def|1 g4 Bc:|2 g6||
|:d3 GAB|g2 d B3|A2 c BAG|A2 c Bc^c|d3 GAB|g2d B3|A2 c BcA|1 G3 ABc:|2 G6||
|:d2 g gfg|B2 g gfg|b2 g gfg|agf gfe|d2 g gfg|B2 g gfg|agf def|1 gba g3:|2 g6||

